!!!OTL: Jesus Christus nostra salus
**kern
*staff1
=1-
*clefF3
*k[]
1D
1A
=2
2F\
2c\
2F\
2G\
=3
1A
2G\
2A\
=4
2F\
2E/
1F
=5
1D
2D/
2G\
=6
1A
1F
=7
1C
2AA/
2C/
2D/
2AA/
!!linebreak:original
=8
2.A\
4G\
4F\
4E/
2D/
=9
2D/
4C/
4C/
2D/
2D/
=10
1D
1C
=11
2D/
2E/
2.c\
4B\
=12
2.A\
4G\
1F
=13
1F
1C
=14
2AA/
2C/
2D/
2AA/
=15
0D
==
*-
!!title: @{OTL}, @{GTL}, ed. @{ENC}
!!!pag:
!!!GTL: Hymnbook D
!!!EFL: 
!!!YEM: Creative Commons CC/BY/NC/SA 4.0
!!!ENC: Marcin Konik
!!!END: 2015-0m-dd
!!!EED: Marcin Konik
!!!EEV: 
!!!ONB: Encoded in vim by Marcin Konik
!!!CharacterEncoding: utf-8
!!!RDF**kern: l=long note in original notation
!!!RDF**kern: i=editorial accidental
!!muse2ps: z14jc180F
!!!COM: Anonim
!!!CDT: [?]
!!!TXO: Polish
!!!ODT: 
!!!GTL: Hymnbook D
!!!ARL: Opactwo św. Wojciecha, Staniątki 
!!!voices:	1
